Newaita-dark/.LP/64/media-playback-start.svg

<?xml version="1.0" encoding="UTF-8"?>
<svg xmlns="http://www.w3.org/2000/svg" xmlns:xlink="http://www.w3.org/1999/xlink" width="64pt" height="64pt" viewBox="0 0 64 64" version="1.1">
<g id="surface1">
<path style=" stroke:none;fill-rule:nonzero;fill:rgb(25.882354%,25.882354%,25.882354%);fill-opacity:1;" d="M 31.753906 61.359375 C 15.628906 61.359375 2.644531 48.378906 2.644531 32.253906 C 2.644531 16.128906 15.628906 3.144531 31.753906 3.144531 C 47.878906 3.144531 60.859375 16.128906 60.859375 32.253906 C 60.859375 48.378906 47.878906 61.359375 31.753906 61.359375 Z M 31.753906 56.066406 C 44.945312 56.066406 55.566406 45.445312 55.566406 32.253906 C 55.566406 19.058594 44.945312 8.4375 31.753906 8.4375 C 18.558594 8.4375 7.9375 19.058594 7.9375 32.253906 C 7.9375 45.445312 18.558594 56.066406 31.753906 56.066406 Z M 31.753906 56.066406 "/>
<path style=" stroke:none;fill-rule:nonzero;fill:rgb(25.882354%,64.705884%,96.078432%);fill-opacity:1;" d="M 23.734375 16.351562 C 22.839844 16.371094 21.980469 16.84375 21.5 17.675781 C 21.191406 18.207031 21.089844 18.800781 21.167969 19.363281 L 21.167969 45.140625 C 21.089844 45.703125 21.191406 46.296875 21.5 46.832031 C 22.230469 48.101562 23.84375 48.53125 25.113281 47.796875 L 48.03125 34.570312 C 48.886719 34.074219 49.363281 33.175781 49.355469 32.253906 C 49.363281 31.332031 48.886719 30.433594 48.03125 29.9375 L 25.113281 16.707031 C 24.675781 16.457031 24.199219 16.339844 23.734375 16.351562 Z M 23.734375 16.351562 "/>
</g>
</svg>

<svg xmlns="http://www.w3.org/2000/svg" width="64pt" height="64pt" viewBox="0 0 64 64"><path d="M31.754 61.36c-16.125 0-29.11-12.981-29.11-29.106s12.985-29.11 29.11-29.11 29.105 12.985 29.105 29.11a29.041 29.041 0 0 1-29.105 29.105zm0-5.294a23.761 23.761 0 0 0 23.812-23.812A23.762 23.762 0 0 0 31.754 8.438 23.763 23.763 0 0 0 7.937 32.254a23.762 23.762 0 0 0 23.817 23.812zm0 0" fill="#424242"/><path d="M23.734 16.352a2.64 2.64 0 0 0-2.234 1.324 2.63 2.63 0 0 0-.332 1.687v25.778a2.645 2.645 0 0 0 .332 1.691 2.636 2.636 0 0 0 3.613.965L48.031 34.57a2.65 2.65 0 0 0 1.324-2.316 2.65 2.65 0 0 0-1.324-2.316L25.113 16.706a2.645 2.645 0 0 0-1.379-.355zm0 0" fill="#42a5f5"/></svg>
